assets/Olive/Flat/olive_flat.svg

<svg width="32" height="32" viewBox="0 0 32 32" fill="none" xmlns="http://www.w3.org/2000/svg">
<path d="M25.2672 6.72412C31.0672 12.5241 31.6172 21.3641 26.4972 26.4841C21.3772 31.6041 12.5372 31.0541 6.73717 25.2541C0.937172 19.4541 0.387173 10.6141 5.50717 5.50412C10.6272 0.394116 19.4672 0.934116 25.2672 6.72412Z" fill="#44911B"/>
<path d="M15.5272 10.0541C13.0872 9.14412 11.5672 7.14412 12.1572 5.57412C12.7372 4.01412 15.1872 3.48412 17.6372 4.38412C20.0872 5.28412 21.5972 7.29412 21.0072 8.86412C20.4172 10.4341 17.9772 10.9641 15.5272 10.0541Z" fill="#86D72F"/>
<path d="M9.99714 14.4241C12.4438 14.4241 14.4271 12.4407 14.4271 9.99412C14.4271 7.5475 12.4438 5.56412 9.99714 5.56412C7.55052 5.56412 5.56714 7.5475 5.56714 9.99412C5.56714 12.4407 7.55052 14.4241 9.99714 14.4241Z" fill="#F8312F"/>
</svg>

<svg xmlns="http://www.w3.org/2000/svg" width="32" height="32" fill="none"><path fill="#44911B" d="M25.267 6.724c5.8 5.8 6.35 14.64 1.23 19.76-5.12 5.12-13.96 4.57-19.76-1.23-5.8-5.8-6.35-14.64-1.23-19.75 5.12-5.11 13.96-4.57 19.76 1.22Z"/><path fill="#86D72F" d="M15.527 10.054c-2.44-.91-3.96-2.91-3.37-4.48.58-1.56 3.03-2.09 5.48-1.19 2.45.9 3.96 2.91 3.37 4.48-.59 1.57-3.03 2.1-5.48 1.19Z"/><path fill="#F8312F" d="M9.997 14.424a4.43 4.43 0 1 0 0-8.86 4.43 4.43 0 0 0 0 8.86Z"/></svg>
